X:1
T:'Deed I Do
C:Fred Rose / Walter Hirsch
R:(Med.)
M:4/4
L:1/8
K:C
[|:"C6"A A3-A4|"Gm7"A G3-"C7"G4|"F6"E D3-D4|"Bb9"E D3-D4|
"Cmaj7"E G3-"A7"G4|"D7"C4 "G7"D4|1 "C6"C8-|"Dm7"C4 "G7"z4:|
|2 "C6"C8-|"Gm7"C4 "C7"z4|| "Fmaj7"z2 A2 B2 c2|d2 c2 A2 F2|
"Bm7"E8|"E7"B8|"A7"z2 E2 G2 A2|B2 A2 G2 F2|
"D7"D8|"Dm7"G8 "G7"y4|| "C6"A A3-A4|"Gm7"A G3-"C7"G4|
"F6"E D3-D4|"Bb9"E D3-D4|"Cmaj7"E G3-"A7"G4|"D7"C4 "G7"D4|
"C6"C8-|"(Dm7"C4 "G7)"z4|]
